X:1
T:The Loss of the Atlantic Steamship
M:6/8
L:1/4
K:C
E/4-G/4| A B/2A/2-G/2 E/2| G3/2 A E/2| E D/2 C B,/2| C3/2- CA/4-B/4|\
 c- B/2- c- A/2-| B G/2 E D/2| E A/2 A B/2| A3/2- AA/4-B/4| c B/2 c A/2|\
 B G/2 E D/2| E A/2 A B/2| A3/2- A E/4E/4| G G/2 ED/4-F/4| A3/2 A E/4F/4|\
 E D/4E/4 C B,/2| C3/2- C||
